rospo-icon-theme-classic-common/32x32/apps/pingus-icon.svg

<svg height="32" viewBox="0 0 32 32" width="32" xmlns="http://www.w3.org/2000/svg"><circle cx="16" cy="17" opacity=".2" r="14"/><circle cx="16" cy="16" fill="#4f4f4f" r="14"/><path d="m10.499993 15a5.4999926 5.3196397 0 0 0 -5.3012628 3.924988c-.1248614.280894-.1987302.60833-.1987302 1.001594 0 .06024.00932.118563.010742.178528a5.4999926 5.3196397 0 0 0 -.010742.215284 5.4999926 5.3196397 0 0 0  .3826899 1.948054c1.2536102 3.873885 5.5257731 6.731552 10.6172951 6.731552 5.120684 0 9.411627-2.890731 10.637437-6.798499a5.4999926 5.3196397 0 0 0  .362549-1.881107 5.4999926 5.3196397 0 0 0 -.0094-.248102c.000945-.049.0094-.09653.0094-.14571 0-.381161-.07039-.699939-.187989-.97534a5.4999926 5.3196397 0 0 0 -5.312004-3.951242 5.4999926 5.3196397 0 0 0 -5.438225 4.565588c-.0058.0024-.06177.02494-.06177.02494s-.05599-.02251-.06177-.02494a5.4999926 5.3196397 0 0 0 -5.43822-4.565588z" opacity=".2"/><path d="m10.499993 14a5.4999926 5.3196397 0 0 0 -5.3012628 3.924988c-.1248614.280894-.1987302.60833-.1987302 1.001594 0 .06024.00932.118563.010742.178528a5.4999926 5.3196397 0 0 0 -.010742.215284 5.4999926 5.3196397 0 0 0  .3826899 1.948054c1.2536102 3.873885 5.5257731 6.731552 10.6172951 6.731552 5.120684 0 9.411627-2.890731 10.637437-6.798499a5.4999926 5.3196397 0 0 0  .362549-1.881107 5.4999926 5.3196397 0 0 0 -.0094-.248102c.000945-.049.0094-.09653.0094-.14571 0-.381161-.07039-.699939-.187989-.97534a5.4999926 5.3196397 0 0 0 -5.312004-3.951242 5.4999926 5.3196397 0 0 0 -5.438225 4.565588c-.0058.0024-.06177.02494-.06177.02494s-.05599-.02251-.06177-.02494a5.4999926 5.3196397 0 0 0 -5.43822-4.565588z" fill="#fff"/><circle cx="11.5" cy="19.5" fill="#3f3f3f" r="1.5"/><circle cx="20.5" cy="19.5" fill="#3f3f3f" r="1.5"/><path d="m20.779291 31.72315h4 4l-2 3.464101-2 3.464102-2-3.464102z" fill="#e31b1b" opacity=".767" transform="matrix(.75000001 0 0 .72168784 -2.584469 -.894211)"/><path d="m16 2a14 14 0 0 0 -14 14 14 14 0 0 0  .0214844.585938 14 14 0 0 1 13.9785156-13.585938 14 14 0 0 1 13.978516 13.414062 14 14 0 0 0  .021484-.414062 14 14 0 0 0 -14-14z" fill="#fff" opacity=".1"/></svg>

<svg xmlns="http://www.w3.org/2000/svg" width="32" height="32" version="1.1" viewBox="0 0 32 32">
 <circle cx="16" cy="17" r="14" style="opacity:0.2"/>
 <circle style="fill:#4f4f4f" cx="16" cy="16" r="14"/>
 <path d="M 10.499993,15 A 5.4999926,5.3196397 0 0 0 5.1987302,18.924988 C 5.0738688,19.205882 5,19.533318 5,19.926582 c 0,0.06024 0.00932,0.118563 0.010742,0.178528 A 5.4999926,5.3196397 0 0 0 5,20.320394 5.4999926,5.3196397 0 0 0 5.3826899,22.268448 C 6.6363001,26.142333 10.908463,29 15.999985,29 c 5.120684,0 9.411627,-2.890731 10.637437,-6.798499 a 5.4999926,5.3196397 0 0 0 0.362549,-1.881107 5.4999926,5.3196397 0 0 0 -0.0094,-0.248102 c 9.45e-4,-0.049 0.0094,-0.09653 0.0094,-0.14571 0,-0.381161 -0.07039,-0.699939 -0.187989,-0.97534 A 5.4999926,5.3196397 0 0 0 21.499978,15 5.4999926,5.3196397 0 0 0 16.061753,19.565588 c -0.0058,0.0024 -0.06177,0.02494 -0.06177,0.02494 0,0 -0.05599,-0.02251 -0.06177,-0.02494 A 5.4999926,5.3196397 0 0 0 10.499993,15 Z" style="opacity:0.2"/>
 <path style="fill:#ffffff" d="M 10.499993,14 A 5.4999926,5.3196397 0 0 0 5.1987302,17.924988 C 5.0738688,18.205882 5,18.533318 5,18.926582 c 0,0.06024 0.00932,0.118563 0.010742,0.178528 A 5.4999926,5.3196397 0 0 0 5,19.320394 5.4999926,5.3196397 0 0 0 5.3826899,21.268448 C 6.6363001,25.142333 10.908463,28 15.999985,28 c 5.120684,0 9.411627,-2.890731 10.637437,-6.798499 a 5.4999926,5.3196397 0 0 0 0.362549,-1.881107 5.4999926,5.3196397 0 0 0 -0.0094,-0.248102 c 9.45e-4,-0.049 0.0094,-0.09653 0.0094,-0.14571 0,-0.381161 -0.07039,-0.699939 -0.187989,-0.97534 A 5.4999926,5.3196397 0 0 0 21.499978,14 5.4999926,5.3196397 0 0 0 16.061753,18.565588 c -0.0058,0.0024 -0.06177,0.02494 -0.06177,0.02494 0,0 -0.05599,-0.02251 -0.06177,-0.02494 A 5.4999926,5.3196397 0 0 0 10.499993,14 Z"/>
 <circle style="fill:#3f3f3f" cx="11.5" cy="19.5" r="1.5"/>
 <circle cx="20.5" cy="19.5" r="1.5" style="fill:#3f3f3f"/>
 <path style="opacity:0.76700003;fill:#e31b1b" d="m 20.779291,31.72315 4,0 4,0 -2,3.464101 -2,3.464102 -2,-3.464102 z" transform="matrix(0.75000001,0,0,0.72168784,-2.5844686,-0.89421137)"/>
 <path style="fill:#ffffff;opacity:0.1" d="M 16 2 A 14 14 0 0 0 2 16 A 14 14 0 0 0 2.0214844 16.585938 A 14 14 0 0 1 16 3 A 14 14 0 0 1 29.978516 16.414062 A 14 14 0 0 0 30 16 A 14 14 0 0 0 16 2 z"/>
</svg>
